assets/icons/librescoot-main-battery-asleep-overlay.svg

<svg width="144" height="144" viewBox="0 0 144 144" fill="none" xmlns="http://www.w3.org/2000/svg">
<path d="M78.3179 56.0881V50.8885L93.712 31.8301V31.6049H78.8501V24.6448H104.214V30.3152L89.7611 48.9028V49.128H104.746V56.0881H78.3179Z" fill="white"/>
<path d="M54.5468 64.0584V60.1587L66.0923 45.8649V45.696H54.9459V40.4759H73.9685V44.7287L63.1292 58.6694V58.8383H74.3677V64.0584H54.5468Z" fill="white"/>
<path d="M108.011 50V43.7605L126.484 20.8904V20.6202H108.65V12.2681H139.086V19.0726L121.743 41.3777V41.6479H139.724V50H108.011Z" fill="white"/>
</svg>

<svg xmlns="http://www.w3.org/2000/svg" width="144" height="144" fill="none" viewBox="0 0 144 144"><path fill="#fff" d="M78.318 56.088v-5.2L93.712 31.83v-.225H78.85v-6.96h25.364v5.67L89.761 48.903v.225h14.985v6.96zm-23.771 7.97v-3.9l11.546-14.294v-.169H54.946v-5.22h19.023v4.253l-10.84 13.941v.169h11.239v5.22zM108.011 50v-6.239l18.473-22.87v-.27H108.65v-8.352h30.436v6.805l-17.343 22.305v.27h17.981V50z"/></svg>
